src/assets/tokens/ramen.svg

<svg width="80" height="80" viewBox="0 0 80 80" fill="none" xmlns="http://www.w3.org/2000/svg">
<path d="M40 80C62.0914 80 80 62.0914 80 40C80 17.9086 62.0914 0 40 0C17.9086 0 0 17.9086 0 40C0 62.0914 17.9086 80 40 80Z" fill="#D8382B"/>
<path d="M42.3533 43.0533H40.8666V9.43994C42.7133 10.8933 46.9733 14.6266 48.8266 19.0066C47.9 19.3999 47.0266 19.8999 46.24 20.5266C44.06 22.2466 42.7933 24.7066 42.4333 27.8399C42.3733 28.3866 42.3533 29.4666 42.3533 29.4666V43.0466V43.0533ZM44.0733 29.1466V43.0533H45.7933C46.22 36.0199 54.3733 29.8333 62.0066 33.8399C64.9533 28.4333 64.5133 20.5733 64.5133 20.5733C59.4933 19.1199 51.4533 18.5466 47.3133 21.8599C45.0733 23.6333 44.0733 26.4199 44.0733 29.1399V29.1466ZM37.6533 43.0533H39.14V9.43994C37.2933 10.8933 33.0333 14.6266 31.18 19.0066C32.1066 19.3999 32.98 19.8999 33.7666 20.5266C35.9466 22.2466 37.2133 24.7066 37.5733 27.8399C37.6333 28.3866 37.6533 29.4666 37.6533 29.4666V43.0466V43.0533ZM32.6866 21.8666C28.5533 18.5599 20.5066 19.1333 15.4866 20.5799C15.4866 20.5799 15.0466 28.4399 17.9933 33.8466C25.62 29.8333 33.78 36.0199 34.2066 43.0599H35.9266V29.1533C35.9266 26.4333 34.9266 23.6466 32.6866 21.8733V21.8666ZM70.56 47.0999C68.88 43.0266 65.2666 37.4933 61.1 35.3199C54.7266 31.9933 47.98 37.2999 47.54 43.0599H53.32C52.6333 47.2866 49.9533 50.8599 46.2866 52.7866C45.1466 53.3799 44.38 54.5199 44.38 55.8066V56.3866H35.64V55.8066C35.64 54.5266 34.8733 53.3866 33.7333 52.7866C30.0666 50.8599 27.3866 47.2866 26.7 43.0599H32.48C32.04 37.2999 25.2866 31.9933 18.92 35.3199C14.7533 37.4933 11.1333 43.0266 9.45996 47.0999C12.68 49.9799 18.4533 53.4666 23.1 53.5999C22.2 58.1999 24.2866 64.5266 26.42 68.3733C30.6666 67.6133 37.2266 65.1399 40.0133 61.7533C42.8 65.1399 49.36 67.6199 53.6066 68.3733C55.74 64.5333 57.8266 58.2066 56.9266 53.5999C61.5733 53.4666 67.3466 49.9799 70.5666 47.0999H70.56Z" fill="#EADED1"/>
</svg>

<svg xmlns="http://www.w3.org/2000/svg" fill="none" viewBox="0 0 80 80"><path fill="#D8382B" d="M40 80c22.091 0 40-17.909 40-40S62.091 0 40 0 0 17.909 0 40s17.909 40 40 40"/><path fill="#EADED1" d="M42.353 43.053h-1.486V9.44c1.846 1.453 6.106 5.187 7.96 9.567-.927.393-1.8.893-2.587 1.52-2.18 1.72-3.447 4.18-3.807 7.313-.06.547-.08 1.627-.08 1.627zm1.72-13.906v13.906h1.72c.427-7.033 8.58-13.22 16.214-9.213 2.946-5.407 2.506-13.267 2.506-13.267-5.02-1.453-13.06-2.026-17.2 1.287-2.24 1.773-3.24 4.56-3.24 7.28zm-6.42 13.906h1.487V9.44c-1.847 1.453-6.107 5.187-7.96 9.567.927.393 1.8.893 2.587 1.52 2.18 1.72 3.446 4.18 3.806 7.313.06.547.08 1.627.08 1.627zm-4.966-21.186c-4.134-3.307-12.18-2.734-17.2-1.287 0 0-.44 7.86 2.506 13.267 7.627-4.014 15.787 2.173 16.214 9.213h1.72V29.153c0-2.72-1-5.506-3.24-7.28zM70.56 47.1c-1.68-4.073-5.293-9.607-9.46-11.78-6.373-3.327-13.12 1.98-13.56 7.74h5.78c-.687 4.227-3.367 7.8-7.033 9.727-1.14.593-1.907 1.733-1.907 3.02v.58h-8.74v-.58c0-1.28-.767-2.42-1.907-3.02-3.666-1.927-6.346-5.5-7.033-9.727h5.78c-.44-5.76-7.193-11.067-13.56-7.74-4.167 2.173-7.787 7.707-9.46 11.78 3.22 2.88 8.993 6.367 13.64 6.5-.9 4.6 1.187 10.927 3.32 14.773 4.247-.76 10.807-3.233 13.593-6.62 2.787 3.387 9.347 5.867 13.594 6.62 2.133-3.84 4.22-10.166 3.32-14.773 4.646-.133 10.42-3.62 13.64-6.5z"/></svg>
